X:1
T:Eccles (Boggett), 66.77.77
T:Boggett, before 1895
T:Eccles (Boggett), 66.77.77
T:Public Domain
C:Boggett, before 1895
Z:Public Domain
%%score ( 1 2 ) ( 3 4 )
L:1/8
M:2/4
K:Eb
V:1 treble 
V:2 treble 
V:3 bass 
V:4 bass 
V:1
 (EG) | [EB]2 (GE) | [EG]2 [DF]2 | E3 [EB] | (eB) (Ac) | (cB) ([FA][EG]) | ([EG]2 [DF]2) | %7
 [EB]2 ([EG][FA]/[GB]/) | [Cc]2 ([FA][GB]/[Ac]/) | [Fd]2 ([DB][Ec]/[Fd]/) | [Ge]4 | (dB) [Fc]2 | %12
 ([GB]E) ([CF]G/A/) | [EG]2 [DF]2 | E4 | [EB]3 [EB] | [Ec][Fc] [Fd][Fd] | [Ge]4 | %18
 ([EG][GB]) ([FA][EG]) | ([DF][FA]) [EG][DF] | [CE][EG] [DF][CE] | [DB]4 | [Ee]3 (d/c/) | %23
 (E z/ A/ [EG])[FA] | [EG]2 [DF]2 | E2 |] %26
V:2
 E2 | x2 E2 | x4 | E3 x | E2 E2 | E2 x2 | x4 | x4 | x4 | x4 | x4 | F2 x2 | x E x/ F x/ | x4 | E4 | %15
 x4 | x4 | x4 | x4 | x4 | x4 | x4 | x3 E | B3/2D x3/2 | x4 | E2 |] %26
V:3
 (G,B,) | [G,B,]2 (E,G,) | B,2 [B,,A,]2 | [E,G,]3 [E,G,] | [E,G,]2 (C,A,,) | (A,G,) [A,,B,]2 | %6
 [B,,B,]4 | [G,B,]2 [E,B,]2 | A,2 [F,C]2 | B,2 B,2 | [E,B,]4 | (B,D) (CD) | (EB,) ([A,,A,][F,,C]) | %13
 [B,,B,]2 [B,,A,]2 | [E,G,]4 | ([E,G,][F,A,] [G,B,])[E,G,] | A,[F,A,] B,[B,,B,] | [E,B,]4 | %18
 [E,B,]2 [G,,B,]2 | [B,,B,]2 [B,,B,]2 | [C,B,]2 [F,=A,]2 | [B,,B,]4 | ([G,B,][F,A,] [G,B,])A, | %23
 (G,F, E,)[A,,C] | [B,,B,]2 [B,,A,]2 | [E,G,]2 |] %26
V:4
 E,2 | x2 B,2 | B,2 x2 | x4 | x2 A,2 | E,2 x2 | x4 | x4 | A,2 x2 | B,2 B,2 | x4 | B,,2 A,,2 | %12
 G,,2 x2 | x4 | x4 | x4 | A,B, x2 | x4 | x4 | x4 | x4 | x4 | x3 A, | B,3 x | x4 | x2 |] %26

